packages/icons/src/arrow-two-rectanglepath-horizontal.svg

<svg width="24" height="24" viewBox="0 0 24 24" fill="none" xmlns="http://www.w3.org/2000/svg">
<path fill-rule="evenodd" clip-rule="evenodd" d="M19 5.00001C20.5977 5.00001 21.9037 6.24893 21.9949 7.82374L22 8.00001V15C22 16.5977 20.7511 17.9037 19.1763 17.9949L19 18L16.793 17.9995L17.9142 19.1213L16.5 20.5355L12.9645 17L16.5 13.4645L17.9142 14.8787L16.792 15.9995L19 16C19.5128 16 19.9355 15.614 19.9933 15.1166L20 15V8.00001C20 7.48718 19.614 7.0645 19.1166 7.00674L19 7.00001H13V5.00001H19ZM7.46447 2.46448L11 6.00001L7.46447 9.53555L6.05025 8.12133L7.17 6.99948L5 7.00001C4.48716 7.00001 4.06449 7.38605 4.00673 7.88339L4 8.00001V15C4 15.5128 4.38604 15.9355 4.88338 15.9933L5 16H11V18H5C3.40232 18 2.09634 16.7511 2.00509 15.1763L2 15V8.00001C2 6.40233 3.24892 5.09635 4.82373 5.0051L5 5.00001L7.172 4.99948L6.05025 3.87869L7.46447 2.46448Z" fill="black"/>
</svg>

<svg xmlns="http://www.w3.org/2000/svg" width="24" height="24" fill="none" viewBox="0 0 24 24">
  <path fill="#000" fill-rule="evenodd" d="M19 5a3 3 0 0 1 2.995 2.824L22 8v7a3 3 0 0 1-2.824 2.995L19 18h-2.207l1.121 1.121-1.414 1.415L12.964 17l3.536-3.536 1.414 1.415-1.122 1.12L19 16a1 1 0 0 0 .993-.883L20 15V8a1 1 0 0 0-.883-.993L19 7h-6V5h6ZM7.464 2.464 11 6 7.464 9.536 6.05 8.12 7.17 7H5a1 1 0 0 0-.993.883L4 8v7a1 1 0 0 0 .883.993L5 16h6v2H5a3 3 0 0 1-2.995-2.824L2 15V8a3 3 0 0 1 2.824-2.995L5 5h2.172L6.05 3.878l1.414-1.415Z" clip-rule="evenodd"/>
</svg>
